icon-themes/sifr_svg/cmd/lc_arrowshapes.notched-left-arrow.svg

<svg viewBox="0 0 24 24" xmlns="http://www.w3.org/2000/svg"><g fill="#555753" transform="matrix(-1 0 0 1 24 0)"><path d="m2 15h13v4h1.777344l5.222656-5.875v-2.25l-5.222656-5.875h-1.777344v4h-13l2 3zm3-2 1-1-1-1h12v-2.138672l3 3.138672-3 3.138672v-2.138672z"/><path d="m4 13h13v2.138672l3-3.138672-3-3.1386719v2.1386719h-13z" opacity=".35"/></g></svg>

<?xml version="1.0" encoding="UTF-8" standalone="no"?>
<svg
   xmlns:dc="http://purl.org/dc/elements/1.1/"
   xmlns:cc="http://creativecommons.org/ns#"
   xmlns:rdf="http://www.w3.org/1999/02/22-rdf-syntax-ns#"
   xmlns:svg="http://www.w3.org/2000/svg"
   xmlns="http://www.w3.org/2000/svg"
   xmlns:sodipodi="http://sodipodi.sourceforge.net/DTD/sodipodi-0.dtd"
   xmlns:inkscape="http://www.inkscape.org/namespaces/inkscape"
   viewBox="0 0 24 24"
   version="1.1"
   id="svg8"
   sodipodi:docname="lc_arrowshapes.notched-left-arrow.svg"
   inkscape:version="0.92.4 (unknown)">
  <metadata
     id="metadata14">
    <rdf:RDF>
      <cc:Work
         rdf:about="">
        <dc:format>image/svg+xml</dc:format>
        <dc:type
           rdf:resource="http://purl.org/dc/dcmitype/StillImage" />
        <dc:title></dc:title>
      </cc:Work>
    </rdf:RDF>
  </metadata>
  <defs
     id="defs12" />
  <sodipodi:namedview
     pagecolor="#ffffff"
     bordercolor="#666666"
     borderopacity="1"
     objecttolerance="10"
     gridtolerance="10"
     guidetolerance="10"
     inkscape:pageopacity="0"
     inkscape:pageshadow="2"
     inkscape:window-width="1366"
     inkscape:window-height="706"
     id="namedview10"
     showgrid="true"
     inkscape:zoom="9.8333333"
     inkscape:cx="-1.0677966"
     inkscape:cy="12"
     inkscape:window-x="0"
     inkscape:window-y="0"
     inkscape:window-maximized="1"
     inkscape:current-layer="svg8">
    <inkscape:grid
       type="xygrid"
       id="grid821" />
  </sodipodi:namedview>
  <g
     id="g6"
     transform="matrix(-1,0,0,1,24,0)"
     style="fill:#555753">
    <path
       d="m 2,15 h 13 v 4 h 1.777344 L 22,13.125 v -2.25 L 16.777344,5 H 15 V 9 H 2 l 2,3 z M 5,13 6,12 5,11 H 17 V 8.861328 L 20,12 17,15.138672 V 13 Z"
       id="path2"
       inkscape:connector-curvature="0" />
    <path
       d="m 4,13 h 13 v 2.138672 L 20,12 17,8.8613281 V 11 H 4 Z"
       id="path4"
       inkscape:connector-curvature="0"
       style="opacity:0.35" />
  </g>
</svg>
